T: Ashplant, The
M: 4/4
L: 1/8
K: Edor
|BE~E2 BAGA|BE~E2 ~G3A|1 BE~E2 BABd|gedB A2GA:|2 ~B3A (3Bcd ef|gedB A2GA||
|:B2eB fBeB|~B2ed BAGA|1 B2eB fBeg|fedB A2GA:|2 (3Bcd ef ~g3e|gedB A2GA||
